public/avatar/item2/37.svg

<svg xmlns:xlink="http://www.w3.org/1999/xlink" height="99.2" width="82.2" xmlns="http://www.w3.org/2000/svg"><use height="9.9" transform="translate(33.3 71.45)" width="9.85" xlink:href="#a"/><defs><g id="a"><path d="M12.15 29.65q0 2-1.45 3.5-1.45 1.45-3.5 1.45-2 0-3.45-1.45-1.45-1.5-1.45-3.5 0-2.05 1.45-3.45 1.45-1.5 3.45-1.5 2.05 0 3.5 1.5 1.45 1.4 1.45 3.45" fill-rule="evenodd" transform="translate(-2.3 -24.7)"/><path d="M7.3 25.6q1.65 0 2.85 1.15 1.2 1.2 1.2 2.9t-1.2 2.95q-1.2 1.1-2.85 1.15V25.6" fill="#fff" fill-rule="evenodd" transform="translate(-2.3 -24.7)"/><path d="M7.3 33.75h-.1q-1.7 0-2.85-1.15-1.2-1.25-1.2-2.95 0-1.7 1.2-2.9 1.15-1.2 2.85-1.15h.1v8.15" fill="#548c46" fill-rule="evenodd" transform="translate(-2.3 -24.7)"/><path d="m7.9 27.1.25.05-.4.35q-.9.85-.9 2.1t.9 2.15l.4.35H7.9q-1.05 0-1.75-.7-.75-.75-.75-1.8t.75-1.75q.7-.75 1.75-.75" fill="red" fill-rule="evenodd" transform="translate(-2.3 -24.7)"/><path d="m9.45 30.35-.6.25-.6-.25-.25-.6q0-.35.25-.6t.6-.25q.35 0 .6.25l.25.6-.25.6" fill="red" fill-rule="evenodd" transform="translate(-2.3 -24.7)"/><path d="M4.5 27.15q1.3-.9 2.7-.9 1.8 0 2.8 1.1" fill="none" stroke="#fff" stroke-linecap="round" stroke-linejoin="round" stroke-opacity=".6" transform="translate(-2.3 -24.7)"/><path d="M10 32.4q-1.3.9-2.7.9-1.8 0-2.8-1.1" fill="none" stroke="#000" stroke-linecap="round" stroke-linejoin="round" stroke-opacity=".302" transform="translate(-2.3 -24.7)"/></g></defs></svg>

<?xml version="1.0" encoding="UTF-8" standalone="no"?>
<svg xmlns:xlink="http://www.w3.org/1999/xlink" height="99.2px" width="82.2px" xmlns="http://www.w3.org/2000/svg">
  <g transform="matrix(1.0, 0.0, 0.0, 1.0, 31.0, 46.75)">
    <use height="9.9" transform="matrix(1.0, 0.0, 0.0, 1.0, 2.3, 24.7)" width="9.85" xlink:href="#shape0"/>
  </g>
  <defs>
    <g id="shape0" transform="matrix(1.0, 0.0, 0.0, 1.0, -2.3, -24.7)">
      <path d="M12.15 29.65 Q12.15 31.65 10.7 33.15 9.25 34.6 7.2 34.6 5.2 34.6 3.75 33.15 2.3 31.65 2.3 29.65 2.3 27.6 3.75 26.2 5.2 24.7 7.2 24.7 9.25 24.7 10.7 26.2 12.15 27.6 12.15 29.65" fill="#000000" fill-rule="evenodd" stroke="none"/>
      <path d="M7.3 25.6 Q8.95 25.6 10.15 26.75 11.35 27.95 11.35 29.65 11.35 31.35 10.15 32.6 8.95 33.7 7.3 33.75 L7.3 25.6" fill="#ffffff" fill-rule="evenodd" stroke="none"/>
      <path d="M7.3 33.75 L7.2 33.75 Q5.5 33.75 4.35 32.6 3.15 31.35 3.15 29.65 3.15 27.95 4.35 26.75 5.5 25.55 7.2 25.6 L7.3 25.6 7.3 33.75" fill="#548c46" fill-rule="evenodd" stroke="none"/>
      <path d="M7.9 27.1 L8.15 27.15 7.75 27.5 Q6.85 28.35 6.85 29.6 6.85 30.85 7.75 31.75 L8.15 32.1 7.9 32.1 Q6.85 32.1 6.15 31.4 5.4 30.65 5.4 29.6 5.4 28.55 6.15 27.85 6.85 27.1 7.9 27.1" fill="#ff0000" fill-rule="evenodd" stroke="none"/>
      <path d="M9.45 30.35 L8.85 30.6 8.25 30.35 8.0 29.75 Q8.0 29.4 8.25 29.15 8.5 28.9 8.85 28.9 9.2 28.9 9.45 29.15 L9.7 29.75 9.45 30.35" fill="#ff0000" fill-rule="evenodd" stroke="none"/>
      <path d="M4.5 27.15 Q5.8 26.25 7.2 26.25 9.0 26.25 10.0 27.35" fill="none" stroke="#ffffff" stroke-linecap="round" stroke-linejoin="round" stroke-opacity="0.6" stroke-width="1.0"/>
      <path d="M10.0 32.4 Q8.7 33.3 7.3 33.3 5.5 33.3 4.5 32.2" fill="none" stroke="#000000" stroke-linecap="round" stroke-linejoin="round" stroke-opacity="0.3019608" stroke-width="1.0"/>
    </g>
  </defs>
</svg>
